svgs/sharp-solid/barcode-read.svg

<svg xmlns="http://www.w3.org/2000/svg" viewBox="0 0 576 512"><!--! Font Awesome Pro 6.6.0 by @fontawesome - https://fontawesome.com License - https://fontawesome.com/license (Commercial License) Copyright 2024 Fonticons, Inc. --><path d="M24 0L0 0 0 24 0 160l48 0L48 48l112 0 0-48L24 0zM192 384l0-256-64 0 0 256 64 0zM352 128l-64 0 0 256 64 0 0-256zm96 0l-64 0 0 256 64 0 0-256zM576 0L552 0 416 0l0 48 112 0 0 112 48 0 0-136 0-24zM24 512l136 0 0-48L48 464l0-112L0 352 0 488l0 24 24 0zm552 0l0-24 0-136-48 0 0 112-112 0 0 48 136 0 24 0zM256 128l-32 0 0 256 32 0 0-256z"/></svg>

<svg xmlns="http://www.w3.org/2000/svg" viewBox="0 0 576 512"><!--! Font Awesome Pro 6.4.0 by @fontawesome - https://fontawesome.com License - https://fontawesome.com/license (Commercial License) Copyright 2023 Fonticons, Inc. --><path d="M24 0H0V24 160H48V48H160V0H24zM192 384V128H128V384h64zM352 128H288V384h64V128zm96 0H384V384h64V128zM576 0H552 416V48H528V160h48V24 0zM24 512H160V464H48V352H0V488v24H24zm552 0V488 352H528V464H416v48H552h24zM256 128H224V384h32V128z"/></svg>
